Newaita/actions/24/media-playback-pause.svg

<?xml version="1.0" encoding="UTF-8"?>
<svg xmlns="http://www.w3.org/2000/svg" xmlns:xlink="http://www.w3.org/1999/xlink" width="24pt" height="24pt" viewBox="0 0 24 24" version="1.1">
<g id="surface1">
<path style=" stroke:none;fill-rule:nonzero;fill:rgb(25.882354%,25.882354%,25.882354%);fill-opacity:1;" d="M 11.90625 1.179688 C 5.859375 1.179688 0.992188 6.046875 0.992188 12.09375 C 0.992188 18.140625 5.859375 23.011719 11.90625 23.011719 C 17.953125 23.011719 22.824219 18.140625 22.824219 12.09375 C 22.824219 6.046875 17.953125 1.179688 11.90625 1.179688 Z M 11.90625 2.667969 C 17.128906 2.667969 21.335938 6.871094 21.335938 12.09375 C 21.335938 17.316406 17.128906 21.523438 11.90625 21.523438 C 6.683594 21.523438 2.480469 17.316406 2.480469 12.09375 C 2.480469 6.871094 6.683594 2.667969 11.90625 2.667969 Z M 11.90625 2.667969 "/>
<path style=" stroke:none;fill-rule:nonzero;fill:rgb(25.882354%,64.705884%,96.078432%);fill-opacity:1;" d="M 9.921875 8.375 L 9.921875 15.816406 C 9.921875 16.226562 9.589844 16.558594 9.179688 16.558594 C 8.769531 16.558594 8.433594 16.226562 8.433594 15.816406 L 8.433594 8.375 C 8.433594 7.960938 8.769531 7.628906 9.179688 7.628906 C 9.589844 7.628906 9.921875 7.960938 9.921875 8.375 Z M 9.921875 8.375 "/>
<path style=" stroke:none;fill-rule:nonzero;fill:rgb(25.882354%,64.705884%,96.078432%);fill-opacity:1;" d="M 15.378906 8.375 L 15.378906 15.816406 C 15.378906 16.226562 15.046875 16.558594 14.636719 16.558594 C 14.226562 16.558594 13.890625 16.226562 13.890625 15.816406 L 13.890625 8.375 C 13.890625 7.960938 14.226562 7.628906 14.636719 7.628906 C 15.046875 7.628906 15.378906 7.960938 15.378906 8.375 Z M 15.378906 8.375 "/>
</g>
</svg>

<svg xmlns="http://www.w3.org/2000/svg" width="32" height="32" viewBox="0 0 24 24"><path d="M11.906 1.18A10.89 10.89 0 0 0 .992 12.094a10.893 10.893 0 0 0 10.914 10.918 10.896 10.896 0 0 0 10.918-10.918A10.893 10.893 0 0 0 11.906 1.18zm0 1.488a9.408 9.408 0 0 1 9.43 9.426 9.41 9.41 0 0 1-9.43 9.43 9.408 9.408 0 0 1-9.426-9.43 9.404 9.404 0 0 1 9.426-9.426zm0 0" fill="#424242"/><path d="M9.922 8.375v7.441a.745.745 0 0 1-1.488 0V8.375c0-.414.336-.746.746-.746s.742.332.742.746zm0 0M15.379 8.375v7.441a.745.745 0 0 1-1.488 0V8.375c0-.414.336-.746.746-.746s.742.332.742.746zm0 0" fill="#42a5f5"/></svg>
